X:356
T:Jenny Nettles
R:Country Dance
B:The Athole Collection
M:C|
L:1/8
K:A Minor
A/B/|c2B2A2a2|e^fge dBGB|cdBc A2a2|ge^fd e2A:|
|:B|cdeA cdec|BAGd BGdB|cdeA cdea|ge^fd e2A:|
B|cde^f gage|gage dBGB|cde^f gage|aba^g a2 AB|
cde^f gage|gage dBGB|cde^f gagf|ea^gb a2A||

